X:330
T: Sally Reel
S: "First Collection of Traditional Irish Music" (M.Mulvihill)
Z: B.Black
L: 1/8
M: 4/4
R: reel
K: A
B||AFEF ABcA|BEcE dEcE|AFEF ABce|afec BdcB|
AFEF ABcA|BEcE dEcE|AFEF ABce|afec (3AAA A2||
eac'a bac'a|eac'a ebba|eac'a bac'a|bac'b (3aaa a2|
eac'a bac'a|eac'a eb b2|cabg agfe|afec (3AAA A2||
K: G %Transposed from A
A||GEDE GABG|ADBD cDBD|GEDE GABd|gedB AcBA|
GEDE GABG|ADBD cDBD|GEDE GABd|gedB (3GGG G2||
dgbg agbg|dgbg daag|dgbg agbg|agba (3ggg g2|
dgbg agbg|dgbg da a2|Bgaf gfed|gedB (3GGG G2||
